X: 291
T: 7. La Ther\^ese
T: la Th\'er\`ese
B: Robert Landrin "Potpourri fran\,cois des contre-danse ancienne tel quil se danse chez la Reine ..." 1760 p.29 #1 dance 9 #7
S: http://memory.loc.gov/cgi-bin/query/D?musdibib:2:./temp/~ammem_EbRS:
Z: 2014 John Chambers <jc:trillian.mit.edu>
M: 2/4
L: 1/8
K: G
% - - - - - - - - - - - - - - - - - - - - - - - - -
|:\
B>cd>c | B>AG>D | G>AB>c | B2!+!A2 |\
B>cd>c | B>AG>D | G>AB>c | B2!+!A2 :|
|:\
"2F"A>DD>A | B>GG>B | A>DD>A | !+!B2A2 |\
d>Bc>d | e>fg>c | B2!+!A2 | G2G2 :|
K:Gm
|:\
"2F"B>cd>e | d>=e^f>g | d>cB>A | !+!B2G2 |\
B>cd>e | d>G^F>G | c2B2 | !+!A4 :|
|:\
"2 F"D>=E^F>G | D>=E^F>G | A>Bc>d | !+!B2A2 |\
d>cB>A | G>DG>c | B2!+!A2 | G4 :|
% - - - - - - - - - - - - - - - - - - - - - - - - -

%%sep 1 1 500
%%sep 1 1 500
